X:34
T:Pegsdon Hills
C: B.Tarry 22/3/2014
M:4/4
L:1/8
Q:1/4=160
K:G
|:D2|G2 GA B2 GD| E2 EG c2 cA|E2 EF G2 B2|AGFE DCB,A,|
G2 GA B2 GD|EEEGc2 c2|BdBG FGAF |G2 GG G2:|
|:GA|B2 Bd gdcB|c2 ce agfe|fdfa gfed |edce A2 GA|
BAGA Bcde| fede fg a2 |BdBG cAFA| AGGF G2:|

